X:732
T:Mary do it again
R:Jig
O:Ireland
S:Kerr's Fourth
B:Kerr's Fourth
Z:Transcription, arrangement,chords:Mike Long
M:6/8
L:1/8
K:A
"A"c2A "E"Bcd|"A"ecA A2B|"Am"=cBA "(D)"d2=c|"G"B2=G G2B|\
"A"c2A "E"Bcd|"A"ecA A2B|"A"efe "E"d2e|"A"c2A A2e:|
|:"G"=g2g (gfe)|d3 c2d|"A"e2a a2g|"A"a2e "(E)"e2f|\
"G"=g2g (gfe)|d3 (c2d)|"A"efe "E"d2e|"A"c2A A2e:|
"G"(=gfe) "(D)"(agf)|"G"(ba=g) "(D)"(agf)|"G"(=gfe) "(D)"(agf)|"G"(=gfe) "(D)"(dcB)|]
